X:1
T:Song from π!
T:Arr: Félix Paquet
T:David Macdonald
%%score { 1 2 }
L:1/8
Q:1/4=70
M:4/4
K:C
V:1 treble nm="Piano"
V:2 treble nm="Piano"
V:1
!p!"^Andante" (e'/d'/c'/a/ e/)a/c'/e'/ d'/c'/a/f/ a/c'/d'/a/ | b2- b/e/a/e/ ^g2 gb | %2
!8va(! e'/d'/c'/d'/ e'/f'/g'/a'/ b'/a'/b'/c''/ d''/c''/b'/a'/!8va)! | ^g4 eg b2 | %4
!mf! [cc']2 [Aa]2 [dd']2 [Aa]2 | [ee']2 [bb']2 [Bb]2 [ff']2 | [ee']2 [cc']2 [ee']2 [aa']2 | %7
 [bb']2 [^g^g']2 [bb']2 [cc']2 | [Bb]2 [cc']2 [aa']2 [dd']2 | [ff']2 [Bb]2 [ff']2 [dd']2 | %10
 [cc']2 [cc']2 [aa']2 [cc']2 | [Bb]2 [^g^g']2 [bb']2 [ee']2 | [^G^g]2 [Bb]2 [aa']2 [aa']2 | %13
 [dd']2 [Aa]2 [bb']2 [^g^g']2 | [Aa]2 [ff']2 [bb']2 [cc']2 | [bb']2 [bb']2 [cc']2 [^g^f']2 | %16
 [ee']2 [Aa]2 [^G^g]2 [ee']2 | [aa']2 [Bb]2 [^G^g]2 [bb']2 | [^G^g]2 [dd']2 [bb']2 [dd']2 | %19
 [dd']2 [ee']2 [bb']2 [Bb]2 | [cc']2 [^G^g]2 [^g^g']2 [aa']2 | [Aa]2 [ff']2 [dd']2 [^G^g]2 | %22
 [ff']2 [Bb]2 [aa']2 [ff']2 | [Bb]2 [^G^g]2 [aa']2 [bb']2 | %24
 (e'/d'/c'/a/ e/)a/c'/e'/ d'/c'/a/f/ a/c'/d'/a/ | b2- b/e/a/e/ ^g2 gb | %26
 e/d/c/d/ e/f/g/a/ b/a/b/c'/ d'/c'/b/a/ | ^g4 eg b2 | !arpeggio![Acea]8 |] %29
V:2
!p! A,/C/E/A/ E/A/E/A/ D,/A,/D/F/ A/d/A/F/ | E,/B,/E/A/ B2 E/^G/B/eee/ | %2
 A,/E/A/c/ e/a/e/c/ D,/A,/D/F/ A/d/A/F/ | E,/B,/E/^G/ B/e/^g/bbb/- b2 | %4
[K:bass] A,,/E,/A,/C/ E/A/E/C/ D,,/A,,/D,/F,/ A,/D/A,/F,/ | %5
 C,/G,/C/E/ G/c/G/E/ B,,/D,/G,/B,/ D/F/D/B,/ | C,/G,/C/E/ G/c/G/E/ C/E/G/c/ E/G/c/G/ | %7
 B,/E/^G/B/ ^G,/B,/E/G/ E,/B,/E/GB/G/B/ | A,,/E,/A,/C/ E/A/E/C/ A,,/E,/A,/C/ E/A/E/C/ | %9
 D,,/A,,/D,/A,/ A,/D/A,/F,/ D,/A,/D/FA/F/A/ | C,/G,/C/E/ D/F/D/F/ E,/B,/E/^G/ E/A/E/C/ | %11
 E,,/B,,/E,/^G,/ B,/E/B,/G,/ E,/G,/B,/E/ G,/B,/E/B,/ | %12
 E,,/B,,/E,/^G,/ B,/E/B,/G,/ A,,/E,/A,/C/ E/A/E/C/ | D,/A,/D/F/ D/F/D/F/ E,/B,/E/^G/ B/e/B/G/ | %14
 A,,/E,/A,/C/ E/A/E/C/ C,/G,/[K:treble]C/E/ G/c/G/E/ | C/E/G/B/ C/E/G/B/ C/E/G/c/ E,/B,/E/^G/ | %16
[K:bass] A,,/E,/A,/C/ E/A/E/C/ E,,/B,,/E,/^G,/ B,/E/B,/G,/ | %17
 A,,/E,/A,/C/ E/A/E/C/ E,,/B,,/E,/^G,/ B,/E/B,/G,/ | E,/B,/[K:treble]E/^G/ B/e/B/G/ E/G/B/eG/B/e/ | %19
[K:bass] A,,/E,/A,/C/ E/A/E/C/ E,,/B,,/E,/^G,/ B,/E/B,/G,/ | %20
 A,,/E,/A,/C/ E,,/B,,/E,/^G,/ B,/E/B,/G,/ A,,/E,/A,/E,/ | %21
 D,,/A,,/D,/F,/ A,/D/A,/F,/ A,/A,,/G,,/F,,/ E,,/B,,/E,/B,,/ | %22
 F,,/A,,/D,/F,/ A,/D/A,/F,/ D,/F,/A,/D/ F,/A,/D/A,/ | %23
 E,,/B,,/E,/^G,/ B,/E/B,/G,/ E,/B,/E/^G/ B/e/B/G/ | %24
[K:treble] A,/C/E/A/ E/A/E/A/ D,/A,/D/F/ A/d/A/F/ | E,/B,/E/A/ B2 E/^G/B/eee/ | %26
 A,/E/A/c/ e/a/e/c/ D,/A,/D/F/ A/d/A/F/ | E,/B,/E/^G/ B/e/^g/bbb/- b2 | %28
[K:bass] !arpeggio![A,,C,E,A,]8 |] %29

